X:1
T:Title
%%score { ( 1 3 ) | ( 2 4 ) }
L:1/8
M:2/4
K:G
V:1 treble nm="Grand Piano"
V:3 treble 
V:2 bass 
V:4 bass 
V:1
 z2 z[Q:1/4=78] D | [B,D][G,DG] [EA]>[EG] | GF E>D | EE [CF][B,G] | A3 A | BB cB | %6
 [EA][EG] [DF]>E | D>D E[CF] | [B,G]2 z [B,G] | G>G FG | B>A A>B | A>A B[G^c] | [Fd]2 z [Gd] | %13
 [Ge]>[ce] [Bd]>[Bd] | [Ad]>[Ac] B>B | [Gd]<[Gd] [Ge]>[Ge] | %16
[M:19/32] z/4 z/4 z/4 z/4 z/4 z/4 z/ [GB]/4-[GB]/4-[GB]/4-[GB]/4-[GB]/4-[GB]/4-[GB]/-<[GB]/ z/4 | %17
[M:2/4] (5:4:4E-[B,E]3/2 F-[CF]3/2 |[M:9/16] [G,B,G]4- [G,B,G]/ |] %19
V:2
 z2 z D, | G,,B,, [C,G,]>[C,A,] | [D,B,D][D,A,D] [E,G,B,]>[B,,G,] | [C,G,][C,G,] [A,,D,][G,,D,] | %4
 [D,F,D]3 [D,F,D] | [G,D][G,D] [G,E][G,D] | [C,G,][C,G,] [C,G,]>[C,G,C] | %7
 [D,F,A,]>[B,,G,] [C,G,C][A,,D,] | [G,,D,]2 z [G,,G,] | [G,B,D]>[G,B,D] [A,C][G,B,D] | %10
 [D,G,D]>[D,F,D] [D,F,D]>[D,G,D] | [D,F,D]>[F,A,D] [G,D][E,A,] | [D,A,]2 z [B,,G,] | %13
 [C,G,]>[C,G,] G,>[G,B,] | [F,D]>[F,A,][K:treble] [G,B,G]>[G,D] | [B,,G,]<[B,,G,] [C,G,]>[C,A,] | %16
[M:19/32] z/4 z/4 z/4 z/4 z/4 z/4 z/ G,/4-G,/4-G,/4-G,/4-G,/-<G,/ z/4 z/ | %17
[M:2/4] (5:4:4[C,-G,-C]2 [C,G,]/ [D,-F,B,][D,A,]3/2 |[M:9/16] G,,4- G,,/ |] %19
V:3
 x4 | x4 | x4 | x4 | x4 | x4 | x4 | x4 | x4 | x4 | x4 | x4 | x4 | x4 | x4 | x4 | %16
[M:19/32] [Gd]/-<[Gd]/[Fc]/-<[Fc]/ z/4 z/4 z/4 z/4 z/4 z/4 z/ D3/4 |[M:2/4] x4 |[M:9/16] x9/2 |] %19
V:4
 x4 | x4 | x4 | x4 | x4 | x4 | x4 | x4 | x4 | x4 | x4 | x4 | x4 | x4 | x2[K:treble] x2 | x4 | %16
[M:19/32] [D,B,]/-<[D,B,]/[^D,A,]/-<[D,A,]/E,/4-E,/4-E,/4-E,/4-E,/-<E,/-[B,,-E,G,-]/[B,,G,]/4 | %17
[M:2/4] x4 |[M:9/16] x9/2 |] %19

